icons/midnadark/actions/24/office-chart-polar.svg

<?xml version="1.0" encoding="UTF-8" standalone="no"?>
<!-- Created with Inkscape (http://www.inkscape.org/) -->

<svg
   xmlns:dc="http://purl.org/dc/elements/1.1/"
   xmlns:cc="http://creativecommons.org/ns#"
   xmlns:rdf="http://www.w3.org/1999/02/22-rdf-syntax-ns#"
   xmlns:svg="http://www.w3.org/2000/svg"
   xmlns="http://www.w3.org/2000/svg"
   xmlns:xlink="http://www.w3.org/1999/xlink"
   xmlns:sodipodi="http://sodipodi.sourceforge.net/DTD/sodipodi-0.dtd"
   xmlns:inkscape="http://www.inkscape.org/namespaces/inkscape"
   width="24"
   height="24"
   id="svg3869"
   version="1.1"
   inkscape:version="0.91 r13725"
   sodipodi:docname="office-chart-polar.svg">
  <defs
     id="defs3871">
    <clipPath
       id="clipPath4160"
       clipPathUnits="userSpaceOnUse">
      <rect
         y="1023.3622"
         x="7"
         height="1"
         width="1"
         id="rect4162"
         style="opacity:1;fill:#f2f2f2;fill-opacity:1;stroke:none;stroke-opacity:1" />
    </clipPath>
    <linearGradient
       gradientTransform="translate(0,-1.9999941)"
       inkscape:collect="always"
       xlink:href="#linearGradient4021-3"
       id="linearGradient4123"
       gradientUnits="userSpaceOnUse"
       x1="3"
       y1="1045.3622"
       x2="15"
       y2="1045.3622" />
    <linearGradient
       id="linearGradient4021-3">
      <stop
         id="stop4023-0"
         offset="0"
         style="stop-color:#b3b3b3;stop-opacity:1;" />
      <stop
         id="stop4025-2"
         offset="1"
         style="stop-color:#4d4d4d;stop-opacity:1;" />
    </linearGradient>
    <clipPath
       id="clipPath4160-8"
       clipPathUnits="userSpaceOnUse">
      <rect
         y="1023.3622"
         x="7"
         height="1"
         width="1"
         id="rect4162-9"
         style="opacity:1;fill:#f2f2f2;fill-opacity:1;stroke:none;stroke-opacity:1" />
    </clipPath>
  </defs>
  <sodipodi:namedview
     id="base"
     pagecolor="#ffffff"
     bordercolor="#666666"
     borderopacity="1.0"
     inkscape:pageopacity="0.0"
     inkscape:pageshadow="2"
     inkscape:zoom="22.627416"
     inkscape:cx="-3.1031463"
     inkscape:cy="10.286893"
     inkscape:document-units="px"
     inkscape:current-layer="layer1"
     showgrid="true"
     fit-margin-top="0"
     fit-margin-left="0"
     fit-margin-right="0"
     fit-margin-bottom="0"
     inkscape:window-width="1366"
     inkscape:window-height="633"
     inkscape:window-x="0"
     inkscape:window-y="33"
     inkscape:window-maximized="1"
     inkscape:showpageshadow="false"
     inkscape:snap-bbox="true"
     inkscape:object-nodes="true">
    <inkscape:grid
       type="xygrid"
       id="grid4132" />
    <sodipodi:guide
       position="4,18"
       orientation="18,0"
       id="guide4138" />
    <sodipodi:guide
       position="5,3"
       orientation="0,18"
       id="guide4140" />
    <sodipodi:guide
       position="20,2.0000174"
       orientation="-18,0"
       id="guide4142" />
    <sodipodi:guide
       position="2,21"
       orientation="0,-18"
       id="guide4144" />
    <sodipodi:guide
       position="3,19.000017"
       orientation="16,0"
       id="guide4146" />
    <sodipodi:guide
       position="2,4"
       orientation="0,16"
       id="guide4148" />
    <sodipodi:guide
       position="21,20"
       orientation="-16,0"
       id="guide4150" />
    <sodipodi:guide
       position="2,20"
       orientation="0,-16"
       id="guide4152" />
  </sodipodi:namedview>
  <metadata
     id="metadata3874">
    <rdf:RDF>
      <cc:Work
         rdf:about="">
        <dc:format>image/svg+xml</dc:format>
        <dc:type
           rdf:resource="http://purl.org/dc/dcmitype/StillImage" />
        <dc:title />
      </cc:Work>
    </rdf:RDF>
  </metadata>
  <g
     inkscape:label="Capa 1"
     inkscape:groupmode="layer"
     id="layer1"
     transform="translate(-326,-532.3622)">
    <g
       transform="translate(-224.28571,-74.28568)"
       id="layer1-7"
       inkscape:label="Capa 1"
       style="fill:#ffffff;fill-opacity:1">
      <path
         sodipodi:nodetypes="ssssssssssssssssssssssssscccccccsssssssssscccccsssssssssssssssssssssssssssssssssssccccccsssssssssssssssssssssssssssssssssss"
         inkscape:connector-curvature="0"
         id="rect4219"
         transform="translate(551.28571,607.64788)"
         d="M 11.5,2 C 11.222995,2 11,2.2229948 11,2.5 11,2.7770052 11.222995,3 11.5,3 11.777005,3 12,2.7770052 12,2.5 12,2.2229948 11.777005,2 11.5,2 Z m -7,1 C 4.2229948,3 4,3.2229948 4,3.5 4,3.7770052 4.2229948,4 4.5,4 4.7770052,4 5,3.7770052 5,3.5 5,3.2229948 4.7770052,3 4.5,3 Z m 14,0 C 18.222995,3 18,3.2229948 18,3.5 18,3.7770052 18.222995,4 18.5,4 18.777005,4 19,3.7770052 19,3.5 19,3.2229948 18.777005,3 18.5,3 Z m -7,1 C 11.222995,4 11,4.2229948 11,4.5 11,4.7770052 11.222995,5 11.5,5 11.777005,5 12,4.7770052 12,4.5 12,4.2229948 11.777005,4 11.5,4 Z m -5,1 C 6.2229948,5 6,5.2229948 6,5.5 6,5.7770052 6.2229948,6 6.5,6 6.7770052,6 7,5.7770052 7,5.5 7,5.2229948 6.7770052,5 6.5,5 Z M 11,5 C 9.0985593,5 7.4122069,5.8783098 6.3144531,7.25 L 9.4433594,9.7539062 C 9.8092923,9.2970958 10.366524,9 11,9 l 0,-0.5 0,-2 z m 0,1.5 C 11,6.7770052 11.222995,7 11.5,7 11.777005,7 12,6.7770052 12,6.5 12,6.2229948 11.777005,6 11.5,6 11.222995,6 11,6.2229948 11,6.5 Z m 0,2 C 11,8.7770052 11.222995,9 11.5,9 11.777005,9 12,8.7770052 12,8.5 12,8.2229948 11.777005,8 11.5,8 11.222995,8 11,8.2229948 11,8.5 Z m 3.708984,-3.4355469 -2.65039,4.2421875 c 0.519459,0.3248556 0.870291,0.8812664 0.923828,1.5273434 l 4.988281,-0.416015 C 17.785146,8.1521675 16.53104,6.2022357 14.708984,5.0644531 Z M 3.5,10 C 3.2229948,10 3,10.222995 3,10.5 3,10.777005 3.2229948,11 3.5,11 3.7770052,11 4,10.777005 4,10.5 4,10.222995 3.7770052,10 3.5,10 Z m 2,0 C 5.2229948,10 5,10.222995 5,10.5 5,10.777005 5.2229948,11 5.5,11 5.7770052,11 6,10.777005 6,10.5 6,10.222995 5.7770052,10 5.5,10 Z m 2,0 C 7.2229948,10 7,10.222995 7,10.5 7,10.777005 7.2229948,11 7.5,11 7.7770052,11 8,10.777005 8,10.5 8,10.222995 7.7770052,10 7.5,10 Z m 2,0 C 9.2229948,10 9,10.222995 9,10.5 9,10.777005 9.2229948,11 9.5,11 9.7770052,11 10,10.777005 10,10.5 10,10.222995 9.7770052,10 9.5,10 Z m 2,0 C 11.222995,10 11,10.222995 11,10.5 11,10.777005 11.222995,11 11.5,11 11.777005,11 12,10.777005 12,10.5 12,10.222995 11.777005,10 11.5,10 Z m 0,2 C 11.222995,12 11,12.222995 11,12.5 11,12.777005 11.222995,13 11.5,13 11.777005,13 12,12.777005 12,12.5 12,12.222995 11.777005,12 11.5,12 Z m 2,0 C 13.222995,12 13,12.222995 13,12.5 13,12.777005 13.222995,13 13.5,13 13.777005,13 14,12.777005 14,12.5 14,12.222995 13.777005,12 13.5,12 Z M 9.5839844,12.416016 7.4609375,14.539062 C 8.3646875,15.442813 9.615,16 11,16 L 11,14.5 11,13 C 10.446,13 9.9454844,12.777516 9.5839844,12.416016 Z M 11,14.5 C 11,14.777005 11.222995,15 11.5,15 11.777005,15 12,14.777005 12,14.5 12,14.222995 11.777005,14 11.5,14 11.222995,14 11,14.222995 11,14.5 Z M 15.5,14 C 15.222995,14 15,14.222995 15,14.5 15,14.777005 15.222995,15 15.5,15 15.777005,15 16,14.777005 16,14.5 16,14.222995 15.777005,14 15.5,14 Z m -9,2 C 6.2229948,16 6,16.222995 6,16.5 6,16.777005 6.2229948,17 6.5,17 6.7770052,17 7,16.777005 7,16.5 7,16.222995 6.7770052,16 6.5,16 Z m 5,0 C 11.222995,16 11,16.222995 11,16.5 11,16.777005 11.222995,17 11.5,17 11.777005,17 12,16.777005 12,16.5 12,16.222995 11.777005,16 11.5,16 Z m 6,0 C 17.222995,16 17,16.222995 17,16.5 17,16.777005 17.222995,17 17.5,17 17.777005,17 18,16.777005 18,16.5 18,16.222995 17.777005,16 17.5,16 Z m -13,2 C 4.2229948,18 4,18.222995 4,18.5 4,18.777005 4.2229948,19 4.5,19 4.7770052,19 5,18.777005 5,18.5 5,18.222995 4.7770052,18 4.5,18 Z m 7,0 C 11.222995,18 11,18.222995 11,18.5 11,18.777005 11.222995,19 11.5,19 11.777005,19 12,18.777005 12,18.5 12,18.222995 11.777005,18 11.5,18 Z"
         style="opacity:1;fill:#ffffff;fill-opacity:1;stroke:none;stroke-width:2.79999995;stroke-miterlimit:4;stroke-dasharray:none;stroke-opacity:0.55026455" />
    </g>
  </g>
</svg>

<svg xmlns="http://www.w3.org/2000/svg" viewBox="0 0 24 24"><defs><clipPath><path fill="#f2f2f2" d="m7 1023.36h1v1h-1z"/></clipPath><clipPath><path fill="#f2f2f2" d="m7 1023.36h1v1h-1z"/></clipPath></defs><path transform="translate(1 .998)" d="m11.5 2c-.277 0-.5.223-.5.5 0 .277.223.5.5.5.277 0 .5-.223.5-.5 0-.277-.223-.5-.5-.5m-7 1c-.277 0-.5.223-.5.5 0 .277.223.5.5.5.277 0 .5-.223.5-.5 0-.277-.223-.5-.5-.5m14 0c-.277 0-.5.223-.5.5 0 .277.223.5.5.5.277 0 .5-.223.5-.5 0-.277-.223-.5-.5-.5m-7 1c-.277 0-.5.223-.5.5 0 .277.223.5.5.5.277 0 .5-.223.5-.5 0-.277-.223-.5-.5-.5m-5 1c-.277 0-.5.223-.5.5 0 .277.223.5.5.5.277 0 .5-.223.5-.5 0-.277-.223-.5-.5-.5m4.5 0c-1.901 0-3.588.878-4.686 2.25l3.129 2.504c.366-.457.923-.754 1.557-.754v-.5-2zm0 1.5c0 .277.223.5.5.5.277 0 .5-.223.5-.5 0-.277-.223-.5-.5-.5-.277 0-.5.223-.5.5m0 2c0 .277.223.5.5.5.277 0 .5-.223.5-.5 0-.277-.223-.5-.5-.5-.277 0-.5.223-.5.5m3.709-3.436l-2.65 4.242c.519.325.87.881.924 1.527l4.988-.416c-.186-2.266-1.44-4.216-3.262-5.354m-11.209 4.936c-.277 0-.5.223-.5.5 0 .277.223.5.5.5.277 0 .5-.223.5-.5 0-.277-.223-.5-.5-.5m2 0c-.277 0-.5.223-.5.5 0 .277.223.5.5.5.277 0 .5-.223.5-.5 0-.277-.223-.5-.5-.5m2 0c-.277 0-.5.223-.5.5 0 .277.223.5.5.5.277 0 .5-.223.5-.5 0-.277-.223-.5-.5-.5m2 0c-.277 0-.5.223-.5.5 0 .277.223.5.5.5.277 0 .5-.223.5-.5 0-.277-.223-.5-.5-.5m2 0c-.277 0-.5.223-.5.5 0 .277.223.5.5.5.277 0 .5-.223.5-.5 0-.277-.223-.5-.5-.5m0 2c-.277 0-.5.223-.5.5 0 .277.223.5.5.5.277 0 .5-.223.5-.5 0-.277-.223-.5-.5-.5m2 0c-.277 0-.5.223-.5.5 0 .277.223.5.5.5.277 0 .5-.223.5-.5 0-.277-.223-.5-.5-.5m-3.916.416l-2.123 2.123c.904.904 2.154 1.461 3.539 1.461v-1.5-1.5c-.554 0-1.055-.222-1.416-.584m1.416 2.084c0 .277.223.5.5.5.277 0 .5-.223.5-.5 0-.277-.223-.5-.5-.5-.277 0-.5.223-.5.5m4.5-.5c-.277 0-.5.223-.5.5 0 .277.223.5.5.5.277 0 .5-.223.5-.5 0-.277-.223-.5-.5-.5m-9 2c-.277 0-.5.223-.5.5 0 .277.223.5.5.5.277 0 .5-.223.5-.5 0-.277-.223-.5-.5-.5m5 0c-.277 0-.5.223-.5.5 0 .277.223.5.5.5.277 0 .5-.223.5-.5 0-.277-.223-.5-.5-.5m6 0c-.277 0-.5.223-.5.5 0 .277.223.5.5.5.277 0 .5-.223.5-.5 0-.277-.223-.5-.5-.5m-13 2c-.277 0-.5.223-.5.5 0 .277.223.5.5.5.277 0 .5-.223.5-.5 0-.277-.223-.5-.5-.5m7 0c-.277 0-.5.223-.5.5 0 .277.223.5.5.5.277 0 .5-.223.5-.5 0-.277-.223-.5-.5-.5" fill="#fff"/></svg>
